dist/icons/svgs/files-outline.svg

<svg xmlns="http://www.w3.org/2000/svg" width="24" height="24" fill="currentcolor" class="icon-files-outline" viewBox="0 0 24 24">
  <path d="M9.5 16.375H18.25C18.5625 16.375 18.875 16.1016 18.875 15.75V7H17C16.2969 7 15.75 6.45312 15.75 5.75V3.875H9.5C9.14844 3.875 8.875 4.1875 8.875 4.5V15.75C8.875 16.1016 9.14844 16.375 9.5 16.375ZM18.25 18.25H9.5C8.09375 18.25 7 17.1562 7 15.75V4.5C7 3.13281 8.09375 2 9.5 2H15.9453C16.6094 2 17.2344 2.27344 17.7031 2.74219L20.0078 5.04688C20.4766 5.51562 20.75 6.14062 20.75 6.80469V15.75C20.75 17.1562 19.6172 18.25 18.25 18.25ZM4.1875 5.75C4.69531 5.75 5.125 6.17969 5.125 6.6875V16.6875C5.125 18.6016 6.64844 20.125 8.5625 20.125H16.0625C16.5703 20.125 17 20.5547 17 21.0625C17 21.6094 16.5703 22 16.0625 22H8.5625C5.59375 22 3.25 19.6562 3.25 16.6875V6.6875C3.25 6.17969 3.64062 5.75 4.1875 5.75Z"/>
</svg>

<svg xmlns="http://www.w3.org/2000/svg" width="24" height="24" fill="currentColor" class="icon-files-outline" viewBox="0 0 24 24">
  <path d="M9.5 16.375h8.75a.64.64 0 0 0 .625-.625V7H17c-.703 0-1.25-.547-1.25-1.25V3.875H9.5a.64.64 0 0 0-.625.625v11.25c0 .352.273.625.625.625m8.75 1.875H9.5a2.47 2.47 0 0 1-2.5-2.5V4.5C7 3.133 8.094 2 9.5 2h6.445c.664 0 1.29.273 1.758.742l2.305 2.305c.469.469.742 1.094.742 1.758v8.945c0 1.406-1.133 2.5-2.5 2.5M4.188 5.75a.95.95 0 0 1 .937.938v10a3.42 3.42 0 0 0 3.438 3.437h7.5a.95.95 0 0 1 .937.938c0 .546-.43.937-.937.937h-7.5a5.27 5.27 0 0 1-5.313-5.312v-10c0-.508.39-.938.938-.938"/>
</svg>
